X:1041
T:Miss Peggy McKenzie's Reel.
M:C
L:1/8
Q:1/4=120
Z:Jack Campin * www.campin.me.uk * 2009
K:D
F|D>EF>d A<FD>F|G>EF>D E/E/E  F2|D>EF>d A<FD>F|G>EA>F D/D/D D:|
f|d>efb  a>fd>f|g>ef>d e/e/e Tf2|d>efb  a>fd>f|g>ea>f d/d/d df|
  d>ef>b a>fd>f|g>ef>d e/e/e  f2|d>eB>d A>BG>A|F>GE>d D/D/D D|]

